images/MarkdownEdit.svg

<svg height="150" viewBox="0 0 150 150" width="150" xmlns="http://www.w3.org/2000/svg"><g fill-rule="evenodd"><path d="m141.013333 45.493333 741.973334 1.013334v932h-741.973334zm0 0" fill="#fff" stroke="#000" stroke-width="4" transform="scale(.146484)"/><g fill="#4d5965"><path d="m38.820312 50.390625c-3.273437.015625-5.917968 2.664063-5.933593 5.933594v37.351562c.015625 3.269531 2.660156 5.917969 5.929687 5.933594h72.363282c3.273437-.015625 5.917968-2.664063 5.933593-5.933594v-37.351562c-.015625-3.269531-2.660156-5.917969-5.929687-5.933594zm0 4.539063h72.359376c.792968 0 1.394531.585937 1.394531 1.394531v37.351562c0 .792969-.585938 1.394531-1.394531 1.394531h-72.359376c-.792968 0-1.394531-.585937-1.394531-1.394531v-37.351562c0-.792969.585938-1.394531 1.394531-1.394531zm0 0"/><path d="m89.867188 61.597656h7.03125v13.035156h7.910156l-11.425782 13.769532-11.570312-13.769532h8.054688zm-23.4375 0h7.03125v25.78125h-7.03125v-14.941406l-7.03125 7.175781-7.175782-7.175781v14.941406h-7.03125v-25.78125h7.03125l7.175782 7.761719zm0 0"/></g></g></svg>

<?xml version="1.0" encoding="UTF-8"?>
<svg xmlns="http://www.w3.org/2000/svg" xmlns:xlink="http://www.w3.org/1999/xlink" width="150px" height="150px" viewBox="0 0 150 150" version="1.1">
<g id="surface1">
<path style="fill-rule:evenodd;fill:rgb(100%,100%,100%);fill-opacity:1;stroke-width:4;stroke-linecap:butt;stroke-linejoin:miter;stroke:rgb(0%,0%,0%);stroke-opacity:1;stroke-miterlimit:4;" d="M 141.013333 45.493333 L 882.986667 46.506667 L 882.986667 978.506667 L 141.013333 978.506667 Z M 141.013333 45.493333 " transform="matrix(0.146484,0,0,0.146484,0,0)"/>
<path style=" stroke:none;fill-rule:evenodd;fill:rgb(30.196078%,34.901961%,39.607843%);fill-opacity:1;" d="M 38.820312 50.390625 C 35.546875 50.40625 32.902344 53.054688 32.886719 56.324219 L 32.886719 93.675781 C 32.902344 96.945312 35.546875 99.59375 38.816406 99.609375 L 111.179688 99.609375 C 114.453125 99.59375 117.097656 96.945312 117.113281 93.675781 L 117.113281 56.324219 C 117.097656 53.054688 114.453125 50.40625 111.183594 50.390625 Z M 38.820312 54.929688 L 111.179688 54.929688 C 111.972656 54.929688 112.574219 55.515625 112.574219 56.324219 L 112.574219 93.675781 C 112.574219 94.46875 111.988281 95.070312 111.179688 95.070312 L 38.820312 95.070312 C 38.027344 95.070312 37.425781 94.484375 37.425781 93.675781 L 37.425781 56.324219 C 37.425781 55.53125 38.011719 54.929688 38.820312 54.929688 Z M 38.820312 54.929688 "/>
<path style=" stroke:none;fill-rule:evenodd;fill:rgb(30.196078%,34.901961%,39.607843%);fill-opacity:1;" d="M 89.867188 61.597656 L 96.898438 61.597656 L 96.898438 74.632812 L 104.808594 74.632812 L 93.382812 88.402344 L 81.8125 74.632812 L 89.867188 74.632812 Z M 66.429688 61.597656 L 73.460938 61.597656 L 73.460938 87.378906 L 66.429688 87.378906 L 66.429688 72.4375 L 59.398438 79.613281 L 52.222656 72.4375 L 52.222656 87.378906 L 45.191406 87.378906 L 45.191406 61.597656 L 52.222656 61.597656 L 59.398438 69.359375 Z M 66.429688 61.597656 "/>
</g>
</svg>
